X:1
T:Title
%%score { 1 | 2 }
L:1/8
Q:1/4=100
M:9/8
K:Eb
V:1 treble nm="Grand Piano"
V:2 bass 
V:1
 [GB][_G=A][=GB] [Ac]3 [GB]3 | EFG A3 G3 | GFE [CF]3 C2 [CE] | E2 D E6 | %4
w: John * * * *||||
 [GB][_G=A][=GB] [Ac]3 [GB]3 | EFG A3 G3 | GFE [CF]3 C2 [CE] | E2 D E6 | G[FA][GB] [Ge]3 [EGB]3 | %9
w: |||||
 [EAc][EBd][Ece] [EAc]3 [EGB]3 | [B,GB][B,EG][B,GB] [Ge]3- [Ge]2 [Ge] | ddc [DB]6 | %12
w: |||
 [GB][_G=A][=GB] [Ac]3 [GB]3 | EFG A3 G3 | GFE [CF]3 C2 [CE] | %15
w: |||
[M:17/8] E2 DE-E- E3 z z z z z z z z2 |] %16
w: |
V:2
 [E,E][E,E][E,E] [E,E]3 [E,E]3 | [E,G,][E,A,E][E,B,E] [E,CE]3 [E,B,E]3 | %2
 [E,B,E][E,A,E][E,G,] [A,,A,]3 [A,,A,]2 [A,,A,] | [B,,G,B,]2 [B,,F,B,] [E,G,B,]6 | %4
 [E,B,][E,E][E,E] [E,E]3 [E,E]3 | [E,G,][E,A,E][E,B,E] [E,CE]3 [E,B,E]3 | %6
 [E,B,E][E,A,E][E,G,] [A,,A,]3 [A,,A,]2 [A,,A,] | [B,,G,B,]2 [B,,F,B,] [E,G,B,]6 | %8
 [E,B,E][E,B,][E,B,] [E,B,]3 E,3 | A,A,A, A,3 E,3 | E,E,E, [E,B,]3- [E,B,]2 [E,B,] | %11
 [F,B,F][F,B,F][F,=A,E] [B,,B,]6 | [E,B,][E,E][E,E] [E,E]3 [E,E]3 | %13
 [E,G,][E,A,E][E,B,E] [E,CE]3 [E,B,E]3 | [E,B,E][E,A,E][E,G,] [A,,A,]3 [A,,A,]2 [A,,A,] | %15
[M:17/8] [B,,G,B,]2 [B,,F,B,][E,G,B,]-[E,G,B,]- [E,G,B,]3 z z z z z z z z2 |] %16

